logo/logo.svg

<svg width="50" height="38" viewBox="0 0 50 38" fill="none" xmlns="http://www.w3.org/2000/svg">
<path fill-rule="evenodd" clip-rule="evenodd" d="M0.607422 31.8498V2.02042C0.607422 0.904576 1.51337 0 2.63091 0H17.5682C19.0724 0 20.0508 1.5806 19.3781 2.92399L4.44077 32.7534C3.48586 34.6603 0.607422 33.9818 0.607422 31.8498ZM50.3852 31.8498V2.02042C50.3852 0.904576 49.4791 0 48.3617 0H33.4244C31.9202 0 30.9418 1.5806 31.6145 2.92399L46.5519 32.7534C47.5066 34.6603 50.3852 33.9818 50.3852 31.8498ZM26.5081 35.1554V5.32596C26.5081 3.19398 29.3865 2.51549 30.3414 4.42243L45.2787 34.2518C45.9513 35.5952 44.9732 37.1758 43.4689 37.1758H28.5315C27.414 37.1758 26.5081 36.2712 26.5081 35.1554ZM24.4846 5.32596V35.1554C24.4846 36.2712 23.5786 37.1758 22.4611 37.1758H7.52378C6.01956 37.1758 5.04121 35.5952 5.71389 34.2518L20.6512 4.42243C21.6061 2.51549 24.4846 3.19398 24.4846 5.32596Z" fill="#275553"/>
</svg>

<svg xmlns="http://www.w3.org/2000/svg" width="50" height="38" fill="none"><path fill="#275553" fill-rule="evenodd" d="M.607 31.85V2.02C.607.905 1.513 0 2.631 0h14.937c1.504 0 2.483 1.58 1.81 2.924L4.441 32.754C3.486 34.66.607 33.981.607 31.85Zm49.778 0V2.02C50.385.905 49.48 0 48.362 0H33.424c-1.504 0-2.482 1.58-1.81 2.924l14.938 29.83c.955 1.906 3.833 1.228 3.833-.904Zm-23.877 3.305V5.326c0-2.132 2.879-2.81 3.833-.904l14.938 29.83c.672 1.343-.306 2.924-1.81 2.924H28.53a2.022 2.022 0 0 1-2.023-2.02ZM24.485 5.326v29.83c0 1.115-.906 2.02-2.024 2.02H7.524c-1.504 0-2.483-1.58-1.81-2.924L20.65 4.422c.955-1.907 3.834-1.228 3.834.904Z" clip-rule="evenodd"/></svg>
